static/app-icons/light-theme/059.svg

<svg xmlns="http://www.w3.org/2000/svg" xmlns:xlink="http://www.w3.org/1999/xlink" viewBox="0 0 32 32"><defs><linearGradient id="a" x1="-2855.5" y1="3694.5" x2="-2845.5" y2="3694.5" gradientTransform="translate(2853.5 -3674.5)" gradientUnits="userSpaceOnUse"><stop offset=".001" stop-opacity="0"/><stop offset=".83"/></linearGradient><linearGradient id="b" x1="861.5" y1="-36.5" x2="867.5" y2="-36.5" gradientTransform="matrix(1 0 0 -1 -840.5 -11.5)" xlink:href="#a"/><linearGradient id="d" y1="32" x2="32" gradientUnits="userSpaceOnUse"><stop offset=".1" stop-color="#ee5396"/><stop offset=".9" stop-color="#8a3ffc"/></linearGradient><mask id="c" x="0" y="0" width="32" height="32" maskUnits="userSpaceOnUse"><path d="M28 25.957h-6v-1.915h6L28.042 6 4 5.957 3.958 24H2.042V6A1.96 1.96 0 014 4.042h24A1.96 1.96 0 0129.958 6v18A1.959 1.959 0 0128 25.957z" fill="#fff"/><path transform="rotate(90 3 20)" fill="url(#a)" d="M-2 18H8v4H-2z" data-name="Gradients (black)"/><path transform="rotate(180 24 25)" fill="url(#b)" d="M21 23h6v4h-6z" data-name="Gradients (black)"/></mask></defs><g data-name="Layer 2"><g data-name="Light theme icons"><g mask="url(#c)"><path fill="url(#d)" d="M0 0h32v32H0z"/></g><path d="M16 30h-6a2 2 0 01-2-2V16a2 2 0 012-2h6a2 2 0 012 2v12a2 2 0 01-2 2zm-6-14v12h6V16z" fill="#001d6c"/></g></g></svg>

<svg xmlns="http://www.w3.org/2000/svg" xmlns:xlink="http://www.w3.org/1999/xlink" viewBox="0 0 32 32"><defs><style>.cls-1{fill:#fff;}.cls-2{fill:url(#linear-gradient);}.cls-3{fill:url(#linear-gradient-2);}.cls-4{mask:url(#mask);}.cls-5{fill:url(#linear-gradient-3);}.cls-6{fill:#001d6c;}</style><linearGradient id="linear-gradient" x1="-2855.5" y1="3694.5" x2="-2845.5" y2="3694.5" gradientTransform="translate(2853.5 -3674.5)" gradientUnits="userSpaceOnUse"><stop offset="0.001" stop-opacity="0"/><stop offset="0.83"/></linearGradient><linearGradient id="linear-gradient-2" x1="861.5" y1="-36.5" x2="867.5" y2="-36.5" gradientTransform="matrix(1, 0, 0, -1, -840.5, -11.5)" xlink:href="#linear-gradient"/><mask id="mask" x="0" y="0" width="32" height="32" maskUnits="userSpaceOnUse"><path class="cls-1" d="M28,25.957H22V24.042h6L28.042,6,4,5.957,3.958,24H2.042V6A1.96,1.96,0,0,1,4,4.042H28A1.96,1.96,0,0,1,29.958,6V24A1.959,1.959,0,0,1,28,25.957Z"/><g id="Gradients_black_" data-name="Gradients (black)"><rect class="cls-2" x="-2" y="18" width="10" height="4" transform="translate(23 17) rotate(90)"/></g><g id="Gradients_black_2" data-name="Gradients (black)"><rect class="cls-3" x="21" y="23" width="6" height="4" transform="translate(48 50) rotate(180)"/></g></mask><linearGradient id="linear-gradient-3" y1="32" x2="32" gradientUnits="userSpaceOnUse"><stop offset="0.1" stop-color="#ee5396"/><stop offset="0.9" stop-color="#8a3ffc"/></linearGradient></defs><g id="Layer_2" data-name="Layer 2"><g id="Light_theme_icons" data-name="Light theme icons"><g class="cls-4"><rect class="cls-5" width="32" height="32"/></g><path class="cls-6" d="M16,30H10a2,2,0,0,1-2-2V16a2,2,0,0,1,2-2h6a2,2,0,0,1,2,2V28A2,2,0,0,1,16,30ZM10,16V28h6V16Z"/></g></g></svg>
